X:1
T:Golden Tresses -- Hornpipe
R:hornpipe
B:Cole's 1000 Fiddle Tunes
M:C|
L:1/8
K:Bb
u~F2|(vB,>.F)k(D>.B) "Segue"F>dB>f|d>fb>f d>fB>d|\
e>gc>e A>cF>c|(3c=Bc (3edc (3_BAG (3FEC|
B,>FD>B F>dB>f|d>fb>f d>fB>d|\
e>gc>e A>cF>A|B2[d2F2][B2D2]:|
|:u~f2|vb2 B,>D F>Bd>b|g2C>E B>ce>g|\
f2A,>C F>Ac>f|d>fB>d F>BD>F|
b2 B,>D F>Bd>b|g2C>E B>ce>g|\
(3c=Bc (3edc (3_BAG (3FGA|B2[d2F2][B2D2]:|
